X: 7320
T: Clicking Chickens, The
R: reel
M: 4/4
K: Dmajor
A3B AF~F2|AFEF AFDF|A3B AF~F2|AFEF D3F|
A3B AF~F2|AFEF AFDF|DEFG AF~F2|AFEF D3F||
Ad~d2 Ad~d2|Be~e2 Be~e2|~f3e dA~A2|BdAF EFDF|
Ad~d2 fd~d2|Be~e2 ge~e2|a3g fd~d2|BdAF EFDF||

